X:35
T:La vielha
R:Polka pique
C:trad
A:Pays Niois
O:France
Z:S. Piron
M:2/4
Q:70
K:G
G/2A/2B/2c/2 dd|BB G2|G/2A/2B/2c/2 dd|c/2d/2c/2B/2 cA|F/2G/2A/2B/2 cc|
AA F2|A>B cd/2c/2|1BA BG:|2BA Gd|
|:ed cc/2d/2|cB Ad|ed BB/2c/2|BA Gd|
ed c c/2d/2|cB Ad|ed BG|1AF Gd:|2AF G2||
